icons/file/icon_format-rar_xl_white.svg

<svg xmlns="http://www.w3.org/2000/svg" width="36" height="36" viewBox="0 0 36 36" fill="none"><rect width="36" height="36" fill="none"/>
<path fill-rule="evenodd" clip-rule="evenodd" d="M23.5581 34H6.55811C5.36504 33.9987 4.22121 33.5241 3.37759 32.6805C2.53396 31.8369 2.05943 30.6931 2.05811 29.5V10.294L10.2921 2H23.5581C26.0391 2 28.0581 4.019 28.0581 6.5V12H27.0581V6.5C27.0581 4.57 25.4881 3 23.5581 3H10.7081L3.05811 10.706V29.5C3.05811 31.43 4.62811 33 6.55811 33H23.5581C25.4881 33 27.0581 31.43 27.0581 29.5V28H28.0581V29.5C28.0581 31.981 26.0391 34 23.5581 34Z" fill="white"/>
<path d="M11.788 20.36H9.18V24H8V15H11.463C12.467 15 13.238 15.23 13.776 15.692C14.319 16.154 14.59 16.826 14.59 17.707C14.59 18.267 14.44 18.757 14.137 19.172C13.84 19.589 13.424 19.9 12.889 20.106L14.982 23.926V24H13.722L11.788 20.36V20.36ZM9.181 19.389H11.5C12.083 19.389 12.546 19.236 12.89 18.931C13.236 18.626 13.41 18.218 13.41 17.707C13.41 17.151 13.244 16.725 12.914 16.427C12.587 16.131 12.114 15.981 11.494 15.977H9.18V19.389H9.181ZM22.465 21.651H18.733L17.895 24H16.683L20.085 15H21.113L24.522 24H23.316L22.466 21.651H22.465ZM19.088 20.674H22.117L20.599 16.465L19.088 20.675V20.674ZM30.288 20.36H27.713V24H26.532V15H29.963C30.967 15 31.738 15.23 32.276 15.692C32.819 16.154 33.09 16.826 33.09 17.707C33.09 18.267 32.94 18.757 32.637 19.172C32.34 19.589 31.924 19.9 31.389 20.106L33.482 23.926V24H32.222L30.288 20.36V20.36ZM27.713 19.389H30C30.583 19.389 31.046 19.236 31.39 18.931C31.736 18.626 31.91 18.218 31.91 17.707C31.91 17.151 31.744 16.725 31.413 16.427C31.087 16.131 30.614 15.981 29.993 15.977H27.713V19.389V19.389Z" fill="white" fill-opacity="0.9"/>
</svg>

<svg width="36" height="36" viewBox="0 0 36 36" fill="none" xmlns="http://www.w3.org/2000/svg"><path d="M0 0h36v36H0z"/><path fill-rule="evenodd" clip-rule="evenodd" d="M23.558 34h-17a4.505 4.505 0 01-4.5-4.5V10.294L10.292 2h13.266c2.481 0 4.5 2.019 4.5 4.5V12h-1V6.5c0-1.93-1.57-3.5-3.5-3.5h-12.85l-7.65 7.706V29.5c0 1.93 1.57 3.5 3.5 3.5h17c1.93 0 3.5-1.57 3.5-3.5V28h1v1.5c0 2.481-2.019 4.5-4.5 4.5z" fill="#fff"/><path d="M11.788 20.36H9.18V24H8v-9h3.463c1.004 0 1.775.23 2.313.692.543.462.814 1.134.814 2.015 0 .56-.15 1.05-.453 1.465-.297.417-.713.728-1.248.934l2.093 3.82V24h-1.26l-1.934-3.64zm-2.607-.971H11.5c.583 0 1.046-.153 1.39-.458.346-.305.52-.713.52-1.224 0-.556-.166-.982-.496-1.28-.327-.296-.8-.446-1.42-.45H9.18v3.412zm13.284 2.262h-3.732L17.895 24h-1.212l3.402-9h1.028l3.409 9h-1.206l-.85-2.349zm-3.377-.977h3.029l-1.518-4.209-1.511 4.21zm11.2-.314h-2.575V24h-1.181v-9h3.431c1.004 0 1.775.23 2.313.692.543.462.814 1.134.814 2.015 0 .56-.15 1.05-.453 1.465-.297.417-.713.728-1.248.934l2.093 3.82V24h-1.26l-1.934-3.64zm-2.575-.971H30c.583 0 1.046-.153 1.39-.458.346-.305.52-.713.52-1.224 0-.556-.166-.982-.497-1.28-.326-.296-.799-.446-1.42-.45h-2.28v3.412z" fill="#fff" fill-opacity=".9"/></svg>
